icons/subscript.svg

<svg viewBox="0 0 24 24" fill="currentColor" xmlns="http://www.w3.org/2000/svg">
    <path d="M5.59567 4L10.5 9.92831L15.4043 4H18L11.7978 11.4971L18 18.9943V19H15.4091L10.5 13.0659L5.59092 19H3V18.9943L9.20216 11.4971L3 4H5.59567ZM21.8 16C21.8 15.5582 21.4418 15.2 21 15.2C20.5582 15.2 20.2 15.5582 20.2 16C20.2 16.0762 20.2107 16.15 20.2306 16.2198L19.0765 16.5496C19.0267 16.375 19 16.1906 19 16C19 14.8954 19.8954 14 21 14C22.1046 14 23 14.8954 23 16C23 16.5727 22.7593 17.0892 22.3735 17.4538L20.7441 19H23V20H19V19L21.5507 16.5803C21.7042 16.4345 21.8 16.2284 21.8 16Z"/>
</svg>

<svg xmlns="http://www.w3.org/2000/svg" viewBox="0 0 24 24">
    <g>
        <path fill="none" d="M0 0h24v24H0z"/>
        <path d="M5.596 4L10.5 9.928 15.404 4H18l-6.202 7.497L18 18.994V19h-2.59l-4.91-5.934L5.59 19H3v-.006l6.202-7.497L3 4h2.596zM21.55 16.58a.8.8 0 1 0-1.32-.36l-1.155.33A2.001 2.001 0 0 1 21 14a2 2 0 0 1 1.373 3.454L20.744 19H23v1h-4v-1l2.55-2.42z"/>
    </g>
</svg>
